X:1
T:Dovro dunque
T:Dovro dunque
T:Giulio Caccini
T:Source : Le nuove Musische di G.Caccini detto Romano---Firenze---G.Marescotti---1601. Editor : André Vierendeels (25/06/15).
T:Notes : Original clefs : G2, F3 Editorial accidentals above the staff Figures in BC are notated in original print Lyrics by Ottavio Rinuccini m 12 in S:   "potro"= "poter" ? 
C:Giulio Caccini
%%score 1 2
L:1/8
Q:1/4=80
M:2/2
K:F
V:1 treble nm="Soprano" snm="S"
V:2 bass nm="BC" snm="BC"
V:1
 B2 c2 d4- | d2 d4 G2 | G8 | A8 | d2 GG c3 G | B2 ^F2 A3 E | G2 DD F3 E | A3 E E4 | D8 | d3 c B4 | %10
w: Do- vro dun-|* que mo-|ri-|re?|Pria che di nuo- vo'io|mi- ri, voi bra-|ma- ta ca- gion le|miei mar- ti-|ri?|Mio per- du-|
 A3 F G4 | A4 A2 G^F | G2 D2 E2 G2 | c4 A2 A2 | d4 =B2 B2 | d8- | d8 | A8 | =B8 | d6 G2 | %20
w: to te- so-|ro, non po- tro|dir- vi pria ch'io|mo- ra io|mo- ro? Io|mo-||ro?|O,|O mi-|
 G4 G2 A2 | A8 | G4 =B4- | B2 AG A2 G2 | ^F4 d4- | d6 AA | A8 | G8 | =B>c d4 A2 | G4 A2 =B2 | %30
w: se- ria'in- au-|di-|ta, non|_ po- ter dir a|voi mor-|* ro mia|vi-|ta,|O _ _ mi-|se- ria'in- au-|
 =B2 c/A/A B/A/AB/G/G | A8 | d2 c=B A2 B2 | c3 G G2 A2 | A8 | G4 =B4- | B2 AG A2 G2 | ^F4 d4- | %38
w: di- * * * * * * * * *|ta,|non po- ter dir a|voi mo- ro mia|vi-|ta, non|_ po- ter di- ra|voi mo-|
 d6 AA | A8 | G4 d4- | d4 c4- | c4 B>c d2 | AA/B/ cA/A/ Bc/A/ AB/4A/4B/4G/4 | A8 | G8 |] %46
w: * ro mia|vi-|ta, mo-|* ro|_ mia _ _|vi- * * * * * * * * * * * * *||ta.|
V:2
 G,2 A,2 B,2 A,G, |"^-natural" ^F,4 G,4 |"^7""^#6" E,4 E,4 | D,4 D,,4 | %4
"^-natural""^-natural" D,4 A,,2 C,2 |"^#" G,,2 D,2 A,,4 | G,,4 D,4 | %7
"^#""^10""^11" A,,2 A,,2 A,,2 A,,A,, |"^#10""^14" D,,8 |"^7     6""^b" B,2 A,2 G,2 G,2 | %10
"^6""^7    6" F,2 D,2 _E,2 E,2 | D,4 D,4 |"^6" =B,,4 C,4- |"^-natural" C,2 A,,2 D,4- | %14
 D,2 D,2 G,4 | G,,8 |"^11""^#10""^9" D,4 D,2 D,2 | D,,8 | G,,8 |"^6" G,4 =B,,4 | %20
"^7""^#6" C,2 D,2 E,2 E,2 |"^11""^#10""^14" D,4 D,2 D,2 | G,,4 G,4 |"^6" E,4 ^C,4 | %24
 D,2 C,2 =B,,2 A,,2 |"^6" G,,G, ^F,E, D,2 ^C,2 |"^11""^#10""^14" D,4 D,2 D,2 | G,,8 |"^#" G,4 D,4 | %29
 E,4 ^F,2 G,2 |"^7""^7""^#6" E,4 E,2 E,2 |"^11""^#10""^9""^#10" D,2 D,D, D,,4 | D,2 E,2 F,2 E,D, | %33
"^6" C,2 =B,,2 C,4 |"^11""^#10" D,4 D,,4 | G,,4 G,4 |"^-natural""^6" E,4 ^C,4 | %37
 D,2 C,2 =B,,2 A,,2 | G,,G, ^F,E, D,2 ^C,2 |"^11""^#10""^14" D,4 D,2 D,2 |"^-natural""^b" G,4 G,4 | %41
 F,4 _E,4 |"^#10""^11" D,4 D,4 |"^#10""^11" D,4 D,4 |"^11""^#10""^14" D,4 D,2 D,2 | G,8 |] %46

